/* XPM */
static char *_0632c74b559453ed56bb98b43a71f1bV9ID5J7wPnWVJxuF[] = {
/* columns rows colors chars-per-pixel */
"24 24 169 2 ",
"   c None",
".  c #0604A5",
"X  c #0706A7",
"o  c #0806A5",
"O  c #0708A6",
"+  c #0606A9",
"@  c #0707AA",
"#  c #0706AB",
"$  c #0605AC",
"%  c #0705AC",
"&  c #0706AC",
"*  c #0707AF",
"=  c #0708A8",
"-  c #0708AD",
";  c #0707B0",
":  c #0706B2",
">  c #0707B6",
",  c #0807B0",
"<  c #0807B2",
"1  c #0807B7",
"2  c #0809B2",
"3  c #0808B4",
"4  c #0808B5",
"5  c #0807B8",
"6  c #0808BA",
"7  c #0909BA",
"8  c #0808BC",
"9  c #0809BD",
"0  c #090ABD",
"q  c #090ABE",
"w  c #0A0CBE",
"e  c #1112B7",
"r  c #2121B6",
"t  c #2728B9",
"y  c #3131B9",
"u  c #3231BB",
"i  c #3232BE",
"p  c #3D3EBD",
"a  c #4A4BB8",
"s  c #494BBD",
"d  c #5454B8",
"f  c #0909C0",
"g  c #0909C1",
"h  c #090AC3",
"j  c #0A0BC3",
"k  c #0C0DC0",
"l  c #0909C5",
"z  c #0A0AC7",
"x  c #0B0DC6",
"c  c #0A0BC8",
"v  c #0A0BC9",
"b  c #0B0CCB",
"n  c #0B0DCB",
"m  c #0B0CCD",
"M  c #0B0CCF",
"N  c #0B0DCF",
"B  c #1011C4",
"V  c #0B0BD0",
"C  c #0C0ED1",
"Z  c #0C0ED2",
"A  c #0B0DD4",
"S  c #0B0CD5",
"D  c #0C0ED4",
"F  c #0D0FD7",
"G  c #0C0ED8",
"H  c #0D0FD8",
"J  c #0C0EDA",
"K  c #0D0FDB",
"L  c #0D0FDD",
"P  c #0D0FDE",
"I  c #0E11D7",
"U  c #0D10DC",
"Y  c #0E10DC",
"T  c #1315D1",
"R  c #1416D5",
"E  c #1E20D6",
"W  c #3332C1",
"Q  c #3232C3",
"!  c #3334C0",
"~  c #3435C6",
"^  c #3132C8",
"/  c #2325D0",
"(  c #2225D1",
")  c #0D0FE1",
"_  c #0D10E0",
"`  c #0D10E2",
"'  c #0E12E2",
"]  c #0E12E3",
"[  c #0E11E4",
"{  c #0F13E4",
"}  c #0D10E6",
"|  c #0E11E6",
" . c #0E11E7",
".. c #0F13E7",
"X. c #0E12E9",
"o. c #0F13EB",
"O. c #0E11EC",
"+. c #0E10ED",
"@. c #0F12ED",
"#. c #0F13EE",
"$. c #0F13EF",
"%. c #171AE3",
"&. c #1014EC",
"*. c #1014F2",
"=. c #1115F2",
"-. c #1014F3",
";. c #1014F5",
":. c #2A2DEC",
">. c #4848C0",
",. c #4949C0",
"<. c #4849C3",
"1. c #494AC3",
"2. c #4A4CC7",
"3. c #494BC9",
"4. c #4A4BC8",
"5. c #6565D2",
"6. c #6D6DD6",
"7. c #6264DA",
"8. c #6E6DD8",
"9. c #6F6FDA",
"0. c #6E6EDB",
"q. c #6D6DDF",
"w. c #6D6EDE",
"e. c #797AD3",
"r. c #7071DE",
"t. c #6769E2",
"y. c #6D6EE1",
"u. c #6D6EE2",
"i. c #6D6DE5",
"p. c #6565EC",
"a. c #6D6EE8",
"s. c #6E6FE8",
"d. c #6E6EEB",
"f. c #6F70E0",
"g. c #6E70E4",
"h. c #7072E1",
"j. c #7070E2",
"k. c #7979E1",
"l. c #7C7DE5",
"z. c #7F81F2",
"x. c #8F90B9",
"c. c #9A9BB8",
"v. c #B2B2B2",
"b. c #8381D7",
"n. c #8282D9",
"m. c #8382DA",
"M. c #8483DC",
"N. c #8384DD",
"B. c #8384DF",
"V. c #8485E2",
"C. c #8586E3",
"Z. c #8585E8",
"A. c #8687E8",
"S. c #8687EA",
"D. c #8686EE",
"F. c #8688EC",
"G. c #8789EC",
"H. c #8788F0",
"J. c #8789F2",
"K. c #888AF0",
"L. c #AEAFEB",
"P. c #B5B5E8",
"I. c #B9B9EF",
"U. c #B1B1F0",
"Y. c #B6B6F7",
"T. c #BBBCF0",
"R. c #BFC0E9",
"E. c #C1C1F9",
"W. c white",
/* pixels */
"                                                ",
"                  $.&.X.} } '                   ",
"              =.$.$.X.} } ) P U G               ",
"          =.=.$.$.X.} } ' P U G F F Z           ",
"        ;.=.$.$.X.} } ' P U G F A Z m b         ",
"      ;.=.$.$.X.} } ' P U G F A Z m b c c       ",
"      =.$.$.:.E.Y.%.P U G F R U.T./ c l j       ",
"    =.$.$.X.z.W.W.p.U G F A t.W.W.k.l j j w     ",
"    $.$.X.} H.W.W.d.E c.x.T j.W.W.V.l j 9 9     ",
"  $.$.X.} } K.W.W.d.4.v.v.^ j.W.W.V.j 9 9 6 1   ",
"  $.X.} } ' H.W.W.d.4.v.v.~ f.W.W.N.9 9 6 1 4   ",
"  X.} } ' ' D.W.W.i.2.v.v.Q r.W.W.N.9 6 1 4 ,   ",
"  } } ' ' P F.W.W.g.,.v.v.Q r.W.W.N.6 1 4 , :   ",
"  } ' ' P G F.W.W.u.,.v.v.! 0.W.W.M.1 4 , : *   ",
"  ' ' P G G S.W.W.u.,.v.v.i 0.W.W.n.4 , : * @   ",
"    P G G A S.W.W.q.,.v.v.u 0.W.W.n., * * @     ",
"    G G A Z S.W.W.q.s v.v.u 6.W.W.b.* * @ =     ",
"    I A F V l.W.W.7.p v.v.t 5.W.W.e.* @ =       ",
"      F m m / I.L.B k d a 1 e P.R.r @ = o       ",
"        m b c x j j 9 6 5 4 : * - @ = O         ",
"          c x j j 9 6 5 4 : * - @ = .           ",
"            j j 9 6 5 4 : , - @ .               ",
"                  5 > 2 , - @                   ",
"                                                "
};
